X: 52
T: Hamborger Skotsk
B:[[Notböcker/Melodier til gamle danske Almuedanse for Violin solo]]
O:Danmark
Z:Søren Bak Vestergaard
M: 2/4
L: 1/8
K: G
g/g/g/e/ dB|ce ed|g/g/g/e/ dB|(.c.A) G2:|\
|:G/A/B/c/ dB|ce ed|G/A/B/c/ dB|(.c.A) G2:|

